public/img/decorations/deco-blob-1.svg

<svg width="338" height="277" viewBox="0 0 338 277" fill="none" xmlns="http://www.w3.org/2000/svg">
<path d="M136.018 0.775024C143.338 0.998024 150.311 2.86002 157.217 4.90402C161.951 6.30502 166.533 8.21602 171.238 9.72702C177.683 11.799 184.205 13.642 190.654 15.704C198.047 18.067 205.496 20.302 212.734 23.077C219.181 25.549 225.818 26.16 232.576 26.624C242.613 27.313 252.408 29.541 262.14 31.958C267.613 33.318 273.015 35.013 278.376 36.777C286.159 39.338 292.769 43.771 298.435 49.705C300.869 52.253 303.482 54.662 306.224 56.875C310.91 60.658 314.185 65.568 317.597 70.391C317.999 70.957 318.31 71.699 318.861 72.031C323.925 75.085 326.72 80.024 329.47 84.928C331.605 88.738 333.45 92.72 335.236 96.711C335.974 98.361 336.533 100.215 336.629 102.006C336.979 108.465 337.936 114.881 337.352 121.411C336.889 126.604 336.916 131.868 337.11 137.086C337.676 152.284 335.641 167.235 333.401 182.2C331.815 192.802 330.878 203.502 329.278 214.101C328.417 219.807 327.28 225.578 325.321 230.976C323.759 235.279 321.196 239.409 318.317 243.006C311.585 251.42 303.104 257.68 292.893 261.414C288.381 263.064 283.952 265.016 279.332 266.275C273.076 267.98 266.711 269.338 260.33 270.509C250.605 272.292 240.844 273.878 231.07 275.381C220.672 276.98 210.306 277.306 199.939 274.719C194.33 273.32 188.527 272.723 182.869 271.504C166.828 268.049 151.043 263.651 135.754 257.669C130.918 255.776 126.25 253.478 122.199 249.956C118.49 246.731 113.928 244.469 110.316 241.155C103.357 234.766 96.6579 228.074 90.1249 221.245C84.3729 215.231 79.0449 208.814 73.4259 202.671C71.6229 200.7 69.3989 199.121 67.5219 197.212C61.8789 191.478 56.3579 185.624 50.6959 179.909C48.0139 177.202 45.0629 174.763 42.3439 172.091C39.7309 169.523 37.2799 166.791 34.7229 164.164C30.1899 159.507 25.8419 154.642 21.0319 150.288C14.4459 144.325 9.29194 137.288 4.85794 129.733C1.90494 124.702 0.404932 119.126 0.994932 113.109C1.35393 109.453 1.56894 105.873 3.02594 102.364C4.82294 98.043 7.59594 94.544 11.0199 91.581C16.4609 86.871 22.0179 82.28 27.7129 77.881C34.4159 72.703 41.2719 67.718 48.1519 62.774C53.0819 59.232 58.3649 56.157 63.1269 52.411C72.1059 45.348 81.2339 38.467 89.4079 30.405C96.0349 23.868 102.898 17.54 110.002 11.527C115.279 7.06004 121.135 3.23104 128.049 1.65704C130.639 1.07104 133.357 1.05302 136.018 0.775024ZM19.8459 102.8C15.5139 101.001 13.7579 101.522 12.1429 105.364C13.5239 105.867 14.8829 106.363 16.5709 106.978C16.7739 105.683 16.8949 104.912 16.9929 104.287C17.9989 103.763 18.9229 103.281 19.8479 102.799C21.2859 101.622 23.0749 100.717 23.4099 98.469C20.4119 98.883 20.4119 98.883 19.8459 102.8ZM118.352 15.815C117.153 17.925 116.342 19.402 117.231 21.328C119.746 19.487 119.773 19.382 118.352 15.815ZM36.2909 86.69C35.4119 88.799 34.8089 90.248 34.0939 91.961C37.8889 90.785 37.8889 90.785 36.2909 86.69ZM129.395 162.873C128.641 162.383 128.006 161.799 127.858 161.903C127.292 162.306 126.881 162.927 126.413 163.468C126.843 163.712 127.337 164.224 127.684 164.138C128.211 164.009 128.639 163.465 129.395 162.873ZM137.797 163.645C137.248 164.305 136.658 164.709 136.697 165.036C136.763 165.591 137.228 166.097 137.525 166.623C137.986 166.255 138.761 165.928 138.818 165.505C138.881 165.033 138.287 164.477 137.797 163.645ZM137.221 207.492C137.242 207.855 137.264 208.219 137.285 208.582C138.129 208.456 138.973 208.33 139.816 208.205C139.787 207.967 139.757 207.73 139.73 207.492C138.895 207.492 138.057 207.492 137.221 207.492ZM110.674 30.56C110.768 30.297 110.862 30.035 110.957 29.772C110.123 29.451 109.291 29.13 108.457 28.809C108.357 29.097 108.256 29.386 108.154 29.674C108.994 29.969 109.834 30.265 110.674 30.56ZM116.773 160.416C116.58 160.891 116.285 161.258 116.357 161.528C116.435 161.827 116.851 162.037 117.121 162.285C117.336 161.902 117.652 161.535 117.713 161.129C117.736 160.968 117.193 160.722 116.773 160.416ZM124.658 162.574C123.793 162.347 123.324 162.142 122.863 162.152C122.707 162.156 122.562 162.708 122.414 163.009C122.768 163.15 123.127 163.408 123.473 163.392C123.754 163.381 124.02 163.036 124.658 162.574ZM133.973 165.672C133.819 165.484 133.664 165.297 133.51 165.11C133.348 165.387 133.151 165.654 133.059 165.954C133.039 166.011 133.434 166.196 133.637 166.322C133.748 166.105 133.861 165.89 133.973 165.672ZM115.15 24.039C114.955 23.876 114.759 23.714 114.566 23.552C114.468 23.778 114.254 24.034 114.302 24.223C114.353 24.418 114.656 24.549 114.849 24.708C114.949 24.486 115.051 24.263 115.15 24.039Z" fill="black"/>
</svg>

<svg width="338" height="277" fill="none" xmlns="http://www.w3.org/2000/svg"><path d="M136.018.775c7.32.223 14.293 2.085 21.199 4.129 4.734 1.401 9.316 3.312 14.021 4.823 6.445 2.072 12.967 3.915 19.416 5.977 7.393 2.363 14.842 4.598 22.08 7.373 6.447 2.472 13.084 3.083 19.842 3.547 10.037.689 19.832 2.917 29.564 5.334 5.473 1.36 10.875 3.055 16.236 4.819 7.783 2.561 14.393 6.994 20.059 12.928a82.18 82.18 0 007.789 7.17c4.686 3.783 7.961 8.693 11.373 13.516.402.566.713 1.308 1.264 1.64 5.064 3.054 7.859 7.993 10.609 12.897 2.135 3.81 3.98 7.792 5.766 11.783.738 1.65 1.297 3.504 1.393 5.295.35 6.459 1.307 12.875.723 19.405-.463 5.193-.436 10.457-.242 15.675.566 15.198-1.469 30.149-3.709 45.114-1.586 10.602-2.523 21.302-4.123 31.901-.861 5.706-1.998 11.477-3.957 16.875-1.562 4.303-4.125 8.433-7.004 12.03-6.732 8.414-15.213 14.674-25.424 18.408-4.512 1.65-8.941 3.602-13.561 4.861-6.256 1.705-12.621 3.063-19.002 4.234-9.725 1.783-19.486 3.369-29.26 4.872-10.398 1.599-20.764 1.925-31.131-.662-5.609-1.399-11.412-1.996-17.07-3.215-16.041-3.455-31.826-7.853-47.115-13.835-4.836-1.893-9.504-4.191-13.555-7.713-3.709-3.225-8.271-5.487-11.883-8.801-6.959-6.389-13.658-13.081-20.191-19.91-5.752-6.014-11.08-12.431-16.7-18.574-1.802-1.971-4.026-3.55-5.903-5.459-5.643-5.734-11.164-11.588-16.826-17.303-2.682-2.707-5.633-5.146-8.352-7.818-2.613-2.568-5.064-5.3-7.621-7.927-4.533-4.657-8.881-9.522-13.691-13.876-6.586-5.963-11.74-13-16.174-20.555-2.953-5.031-4.453-10.607-3.863-16.624.359-3.656.574-7.236 2.03-10.745 1.798-4.321 4.57-7.82 7.995-10.783 5.44-4.71 10.998-9.301 16.693-13.7 6.703-5.178 13.559-10.163 20.439-15.107 4.93-3.542 10.213-6.617 14.975-10.363 8.979-7.063 18.107-13.944 26.28-22.006 6.628-6.537 13.491-12.865 20.595-18.878 5.277-4.467 11.133-8.296 18.047-9.87 2.59-.586 5.308-.604 7.969-.882zM19.846 102.8c-4.332-1.799-6.088-1.278-7.703 2.564l4.428 1.614.422-2.691 2.855-1.488c1.438-1.177 3.227-2.082 3.562-4.33-2.998.414-2.998.414-3.564 4.331zm98.506-86.985c-1.199 2.11-2.01 3.587-1.121 5.513 2.515-1.841 2.542-1.946 1.121-5.513zM36.291 86.69l-2.197 5.271c3.795-1.176 3.795-1.176 2.197-5.271zm93.104 76.183c-.754-.49-1.389-1.074-1.537-.97-.566.403-.977 1.024-1.445 1.565.43.244.924.756 1.271.67.527-.129.955-.673 1.711-1.265zm8.402.772c-.549.66-1.139 1.064-1.1 1.391.066.555.531 1.061.828 1.587.461-.368 1.236-.695 1.293-1.118.063-.472-.531-1.028-1.021-1.86zm-.576 43.847l.064 1.09 2.531-.377c-.029-.238-.059-.475-.086-.713h-2.509zM110.674 30.56l.283-.788-2.5-.963c-.1.288-.201.577-.303.865l2.52.886zm6.099 129.856c-.193.475-.488.842-.416 1.112.078.299.494.509.764.757.215-.383.531-.75.592-1.156.023-.161-.52-.407-.94-.713zm7.885 2.158c-.865-.227-1.334-.432-1.795-.422-.156.004-.301.556-.449.857.354.141.713.399 1.059.383.281-.011.547-.356 1.185-.818zm9.315 3.098l-.463-.562c-.162.277-.359.544-.451.844-.02.057.375.242.578.368.111-.217.224-.432.336-.65zM115.15 24.039l-.584-.487c-.098.226-.312.482-.264.671.051.195.354.326.547.485.1-.222.202-.445.301-.669z" fill="#000"/></svg>
